X:1
T:186 - É Jesus Quem Salva
T:Letra: Robert Lowry (1826-1899)
T:Trad.: Stuart Edmund McNair (1867-1959)
T:Música: Robert Lowry (1826-1899)
M:4/4
L:1/4
Q:1/4=100
K:Eb
V:1
"Eb"BcBG | "Bb7"F2 "Eb"E2 | "Bb7"FFFE | "Eb"GB "Bb"B2 | "Bb7"FFFE | "Eb"GB B2 | "Ab"ccBG | "Bb7"BB"Eb"G2 | "Eb"EGBG | "Bb7"F2 "Eb"Ez || "Ab"ccce | "Eb"B"Bb"B "Eb"B2 | "Ab"ccce | "Eb"B"Bb"B "Eb"B2 | "Ab"ccBG | "Bb7"BB"Eb"G2 | "Eb"EGBG | "Bb7"F2 "Eb"Ez |]
w: 1.~O cho-rar não sal-va! Mes-moo la-gri-mar sem fim Ja-mais man-cha car-me-sim Po-de-rá la-var em mim; O cho-rar não sal-va! Foi Je-sus que pa-de-ceu,    So-brea cruz por mim mor-reu;    Por seu san-gue que ver-teu                 Pô-deas-sim sal-var-me! 
w: 2.~O-bras não me sal-vam! Meus es-for-ços sem ces-sar Não me po-dem trans-for-mar, Nem meus ma-les ex-pi-ar; O-bras não me sal-vam!       
w: 3.~O-ra-ções não sal-vam! A-pe-sar do seu fer-vor, Pe-ti-ções não têm va-lor Pra sal-var o pe-ca-dor; O-ra-ções não sal-vam!  
w: 4.~É Je-sus quem sal-va! E-lea o-bra con-su-mou, Meus pe-ca-dos ex-pi-ou, Com seu san-gue me la-vou; É Je-sus quem sal-va!  
W: 
W:
W: 1. O chorar não salva!
W: Mesmo o lagrimar sem fim
W: Jamais mancha carmesim
W: Poderá lavar em mim;
W: O chorar não salva!
W: 
W:    (Estribilho)
W:    Foi Jesus que padeceu,
W:    Sobre a cruz por mim morreu;
W:    Por seu sangue que verteu
W:    Pôde assim salvar-me!
W:
W: 2. Obras não me salvam!
W: Meus esforços sem cessar
W: Não me podem transformar,
W: Nem meus males expiar;
W: Obras não me salvam!
W: 
W: 
W:
W: 3. Orações não salvam!
W: Apesar do seu fervor,
W: Petições não têm valor
W: Pra salvar o pecador;
W: Orações não salvam!
W: 
W: 4. É Jesus quem salva!
W: Ele a obra consumou,
W: Meus pecados expiou,
W: Com seu sangue me lavou;
W: É Jesus quem salva!
W:         
W: 





